assets/Light bulb/Flat/light_bulb_flat.svg

<svg width="32" height="32" viewBox="0 0 32 32" fill="none" xmlns="http://www.w3.org/2000/svg">
<path d="M17.6512 22.27H13.7612C12.9712 22.27 12.3212 22.91 12.3312 23.7V27.59C12.3312 28.38 12.9712 29.02 13.7612 29.02H14.0093C14.3418 29.6109 14.9749 30.01 15.7012 30.01C16.4275 30.01 17.0605 29.6109 17.393 29.02H17.6512C18.4412 29.02 19.0812 28.38 19.0812 27.59V23.7C19.0812 22.91 18.4412 22.27 17.6512 22.27Z" fill="#9B9B9B"/>
<path d="M18.1611 23.13C18.4011 23.13 18.5911 22.95 18.6111 22.72C18.6811 21.86 19.0511 19.77 21.0711 17.53C22.9611 16.04 24.2111 13.78 24.3611 11.22C24.3811 10.98 24.3911 10.82 24.3911 10.72V10.71V10.7C24.3911 10.65 24.3911 10.62 24.3911 10.62C24.3311 5.84 20.4611 2 15.6911 2C10.9211 2 7.05111 5.84 7.00111 10.6C7.00111 10.6 6.99111 10.84 7.03111 11.24C7.19111 13.78 8.43111 16.03 10.3211 17.52C12.3411 19.77 12.7411 21.86 12.8111 22.72C12.8311 22.95 13.0211 23.13 13.2611 23.13H18.1611Z" fill="#FCD53F"/>
<path d="M15.7011 10.7C17.3211 10.7 18.6411 12.01 18.6611 13.63V13.71C18.6611 13.74 18.6611 13.78 18.6511 13.84C18.6011 14.68 18.1911 15.47 17.5311 15.99L17.4611 16.04L17.4011 16.1C16.3011 17.32 16.0711 20.42 16.0311 22.12H15.3811C15.3311 20.42 15.0911 17.32 13.9911 16.1L13.9311 16.04L13.8611 15.99C13.2011 15.47 12.7911 14.69 12.7411 13.82C12.7411 13.78 12.7311 13.75 12.7311 13.73V13.64C12.7611 12.02 14.0911 10.7 15.7011 10.7ZM15.7011 9.69995C13.5311 9.69995 11.7611 11.45 11.7411 13.62C11.7411 13.62 11.7411 13.73 11.7511 13.91C11.8211 15.07 12.3911 16.09 13.2511 16.77C14.4511 18.11 14.3911 23.13 14.3911 23.13H17.0311C17.0311 23.13 16.9511 18.11 18.1611 16.78C19.0211 16.1 19.5911 15.07 19.6611 13.9C19.6711 13.79 19.6711 13.72 19.6711 13.67C19.6711 13.65 19.6711 13.63 19.6711 13.63C19.6411 11.45 17.8811 9.69995 15.7011 9.69995Z" fill="#FFB02E"/>
<path d="M19.1674 25.0525C19.4394 25.0049 19.6213 24.7458 19.5737 24.4738C19.526 24.2018 19.2669 24.0199 18.9949 24.0675L12.2549 25.2475C11.9829 25.2951 11.801 25.5542 11.8486 25.8262C11.8963 26.0983 12.1554 26.2801 12.4274 26.2325L19.1674 25.0525ZM19.1178 27.2025C19.3897 27.1546 19.5714 26.8954 19.5236 26.6234C19.4757 26.3514 19.2165 26.1698 18.9445 26.2176L12.2945 27.3876C12.0225 27.4355 11.8408 27.6947 11.8887 27.9667C11.9365 28.2386 12.1958 28.4203 12.4678 28.3725L19.1178 27.2025Z" fill="#D3D3D3"/>
<path d="M13.7912 5.43997C12.6812 7.35997 13.2412 9.75997 15.0412 10.79C16.8412 11.82 19.1912 11.11 20.3012 9.18997C21.4112 7.26997 20.8512 4.86997 19.0512 3.83997C17.2512 2.80997 14.9012 3.51997 13.7912 5.43997Z" fill="#FFF478"/>
</svg>

<svg xmlns="http://www.w3.org/2000/svg" width="32" height="32" fill="none"><path fill="#9B9B9B" d="M17.651 22.27h-3.89c-.79 0-1.44.64-1.43 1.43v3.89c0 .79.64 1.43 1.43 1.43h.248a1.94 1.94 0 0 0 3.384 0h.258c.79 0 1.43-.64 1.43-1.43V23.7c0-.79-.64-1.43-1.43-1.43Z"/><path fill="#FCD53F" d="M18.161 23.13c.24 0 .43-.18.45-.41.07-.86.44-2.95 2.46-5.19a8.665 8.665 0 0 0 3.29-6.31c.02-.24.03-.4.03-.5v-.1c-.06-4.78-3.93-8.62-8.7-8.62a8.69 8.69 0 0 0-8.69 8.6s-.01.24.03.64c.16 2.54 1.4 4.79 3.29 6.28 2.02 2.25 2.42 4.34 2.49 5.2.02.23.21.41.45.41h4.9Z"/><path fill="#FFB02E" d="M15.701 10.7c1.62 0 2.94 1.31 2.96 2.93v.08c0 .03 0 .07-.01.13-.05.84-.46 1.63-1.12 2.15l-.07.05-.06.06c-1.1 1.22-1.33 4.32-1.37 6.02h-.65c-.05-1.7-.29-4.8-1.39-6.02l-.06-.06-.07-.05a2.96 2.96 0 0 1-1.12-2.17c0-.04-.01-.07-.01-.09v-.09c.03-1.62 1.36-2.94 2.97-2.94Zm0-1a3.96 3.96 0 0 0-2.45 7.07c1.2 1.34 1.14 6.36 1.14 6.36h2.64s-.08-5.02 1.13-6.35c.86-.68 1.43-1.71 1.5-2.88.01-.11.01-.18.01-.23v-.04a3.971 3.971 0 0 0-3.97-3.93Z"/><path fill="#D3D3D3" d="M19.167 25.052a.5.5 0 1 0-.172-.985l-6.74 1.18a.5.5 0 1 0 .172.986l6.74-1.18Zm-.05 2.15a.5.5 0 0 0-.172-.984l-6.65 1.17a.5.5 0 1 0 .173.984l6.65-1.17Z"/><path fill="#FFF478" d="M13.791 5.44c-1.11 1.92-.55 4.32 1.25 5.35 1.8 1.03 4.15.32 5.26-1.6 1.11-1.92.55-4.32-1.25-5.35-1.8-1.03-4.15-.32-5.26 1.6Z"/></svg>
